packages/vibrant-icons/assets/icons/SlowMotion/Thin.svg

<svg width="24" height="24" viewBox="0 0 24 24" fill="none" xmlns="http://www.w3.org/2000/svg">
<path d="M9.6502 7.77567L16.2222 12.0007L9.6502 16.2257V7.77567ZM11.0002 3.91117V2.20117C9.0332 2.40017 7.2357 3.18117 5.7817 4.36817L6.9872 5.57367C8.1522 4.66117 9.5317 4.09017 11.0002 3.91117ZM5.5727 6.98767L4.3672 5.78217C3.1802 7.23617 2.3997 9.03367 2.2002 11.0007H3.9102C4.0887 9.53167 4.6602 8.15267 5.5722 6.98767H5.5727ZM5.7817 19.6337C7.2357 20.8202 9.0332 21.6012 11.0002 21.8007V20.0907C9.5312 19.9122 8.1522 19.3407 6.9872 18.4287L5.7817 19.6342V19.6337ZM2.2007 13.0007C2.3997 14.9677 3.1807 16.7652 4.3677 18.2192L5.5732 17.0137C4.6607 15.8487 4.0897 14.4692 3.9107 13.0007H2.2007ZM13.0002 2.20117V3.91117C14.7982 4.12967 16.4622 4.93667 17.7632 6.23767C19.3027 7.77717 20.1502 9.82417 20.1502 12.0007C20.1502 14.1772 19.3027 16.2242 17.7632 17.7637C16.4622 19.0647 14.7982 19.8717 13.0002 20.0902V21.8002C17.9637 21.2977 21.8502 17.0942 21.8502 12.0007C21.8502 6.90717 17.9637 2.70367 13.0002 2.20117Z" fill="black"/>
</svg>

<svg xmlns="http://www.w3.org/2000/svg" width="24" height="24" fill="none"><path fill="#000" d="M9.65 7.776 16.222 12 9.65 16.226zM11 3.91v-1.71a9.8 9.8 0 0 0-5.218 2.167l1.205 1.206A8.07 8.07 0 0 1 11 3.91M5.573 6.988 4.367 5.782A9.8 9.8 0 0 0 2.2 11.001h1.71a8.07 8.07 0 0 1 1.662-4.013m.209 12.646A9.8 9.8 0 0 0 11 21.8v-1.71a8.07 8.07 0 0 1-4.013-1.662zM2.2 13a9.8 9.8 0 0 0 2.167 5.218l1.205-1.205A8.07 8.07 0 0 1 3.911 13zM13 2.2v1.71a8.1 8.1 0 0 1 4.762 2.327A8.1 8.1 0 0 1 20.15 12a8.1 8.1 0 0 1-2.387 5.763A8.1 8.1 0 0 1 13 20.09v1.71c4.964-.502 8.85-4.706 8.85-9.8 0-5.093-3.886-9.296-8.85-9.799"/></svg>
